X:7
T:Three Little Drummers
R:jig
M:6/8
I:speed 350
K:ADor
|eAA eAA|BAB GBd|eAA eAA|def gfg|\
eAA eAA|BAB GBd|efg edB|BAG A3:|*
|eaa aga|bab ged|eaa aga|bab g2d|\
eaa eaa|bab ged|efg edB|BAG A3:|**
<end>
<start>
